X:1     %Music
T:Sweet Kitty
B: Journal of the English Folk Dance and Song Society, Dec 1959
S:Captain Lewis, Minehead, Somerset, 12 Sep, 1906
Z:Cecil Sharp
F:http://www.folkinfo.org/songs
M:3/4     %Meter
L:1/8     %
K:DDor
(AG) |F2 E2 C2 |D2 C2 D2 |F2 G2 A2 | c4 
w:A *bon-ny Scotch lad-die was rid-ing one day,
c2 |B2 d2 B2 |A2 c2 A2 |G2 E2 E2 | D4
w:He chanced to meet Mol-ly all on the high-way. 
(AG) |F2 E2 D2 |D2 C2 D2 |F2 G2 A2 |
w:He_ tipped her the wink and she rolled her dark 
c4 c2 |B2 d2 B2 |A2 c2 A2 |G2 F2 c c | E2
w:eye. Thinks he to him-self I'll be with you by and by, 
 D2 C2 |D3 E FF |E2 D2 D2 |d3 d dd | c2 A2 A2 |G2 E2 D2 |D4 |]
w:And sing fal the did-dle i-do, Sing fal the did-dle i-do, Sing fal the dal day. 